src/svg/mention.svg

<svg height="16" width="14" xmlns="http://www.w3.org/2000/svg" viewBox="0 0 14 16">
  <path d="M6.58 15c1.25 0 2.52-0.31 3.56-0.94l-0.42-0.94c-0.84 0.52-1.89 0.83-3.03 0.83-3.23 0-5.64-2.08-5.64-5.72C1.05 3.86 4.28 1.05 7.63 1.05c3.45 0 5.22 2.19 5.22 5.2 0 2.39-1.34 3.86-2.5 3.86-1.05 0-1.36-0.73-1.05-2.19l0.73-3.75h-1.05l-0.11 0.72c-0.41-0.63-0.94-0.83-1.56-0.83-2.19 0-3.66 2.39-3.66 4.38 0 1.67 0.94 2.61 2.3 2.61 0.84 0 1.67-0.53 2.3-1.25 0.11 0.94 0.94 1.45 1.98 1.45 1.67 0 3.77-1.67 3.77-5C14 2.61 11.59 0 7.83 0 3.66 0 0 3.33 0 8.33c0 4.38 2.92 6.67 6.58 6.67z m-0.31-5c-0.73 0-1.36-0.52-1.36-1.67 0-1.45 0.94-3.22 2.41-3.22 0.52 0 0.84 0.2 1.25 0.83l-0.52 3.02c-0.63 0.73-1.25 1.05-1.78 1.05z" />
</svg>

<?xml version="1.0" encoding="UTF-8" standalone="no"?>
<svg width="14px" height="16px" viewBox="0 0 14 16" version="1.1" xmlns="http://www.w3.org/2000/svg" xmlns:xlink="http://www.w3.org/1999/xlink">
    <!-- Generator: Sketch 3.7.1 (28215) - http://www.bohemiancoding.com/sketch -->
    <title>mention</title>
    <desc>Created with Sketch.</desc>
    <defs></defs>
    <g id="Octicons" stroke="none" stroke-width="1" fill="none" fill-rule="evenodd">
        <g id="mention" fill="#000000">
            <path d="M6.58,15 C7.83,15 9.1,14.69 10.14,14.06 L9.72,13.12 C8.88,13.64 7.83,13.95 6.69,13.95 C3.46,13.95 1.05,11.87 1.05,8.23 C1.05,3.86 4.28,1.05 7.63,1.05 C11.08,1.05 12.85,3.24 12.85,6.25 C12.85,8.64 11.51,10.11 10.35,10.11 C9.3,10.11 8.99,9.38 9.3,7.92 L10.03,4.17 L8.98,4.17 L8.87,4.89 C8.46,4.26 7.93,4.06 7.31,4.06 C5.12,4.06 3.65,6.45 3.65,8.44 C3.65,10.11 4.59,11.05 5.95,11.05 C6.79,11.05 7.62,10.52 8.25,9.8 C8.36,10.74 9.19,11.25 10.23,11.25 C11.9,11.25 14,9.58 14,6.25 C14,2.61 11.59,0 7.83,0 C3.66,0 0,3.33 0,8.33 C0,12.71 2.92,15 6.58,15 L6.58,15 Z M6.27,10 C5.54,10 4.91,9.48 4.91,8.33 C4.91,6.88 5.85,5.11 7.32,5.11 C7.84,5.11 8.16,5.31 8.57,5.94 L8.05,8.96 C7.42,9.69 6.8,10.01 6.27,10.01 L6.27,10 Z" id="Shape"></path>
        </g>
    </g>
</svg>
